X: 31
T:Racoon Reel
% Nottingham Music Database
S:Mick Peat
P:/f2Play AABA last time/fP
M:2/4
L:1/4
K:A
"A"C/2C/4D/4 E/2E/4F/4|E/2E/4F/4 E/4D/4C/4D/4|E/2E/4F/4 E/2E/4F/4|\
E/2C/2 "E"B,/2^B,/2|
"A"C/2C/4D/4 E/2E/4F/4|E/2E/4F/4 E/4D/4C/4D/4|E/2E/4F/4 E/2D/2|\
"E"C/2B,/2 "A"A,:|
"A7"=G/2G/4A/4 c/2c/4e/4|c/2c/4e/4 c/4A/4=G/4A/4|c/2c/4e/4 c/2c/4e/4|\
"A7"c/2=G/2 "C7"=c|
"A7"=G/2G/4A/4 c/2c/4e/4|c/2c/4e/4 c/4A/4=G/4A/4|c/2c/4e/4 c/2A/2|\
"A7"=G/2F/2 "D"D:|


